assets/logo.svg

<?xml version="1.0" encoding="UTF-8" standalone="no"?>
<svg
   version="1.1"
   viewBox="0 0 250 250"
   height="250"
   width="250"
   alt="Rocket Ship"
   id="rocket"
   xmlns="http://www.w3.org/2000/svg"
   xmlns:svg="http://www.w3.org/2000/svg"
   xmlns:rdf="http://www.w3.org/1999/02/22-rdf-syntax-ns#"
   xmlns:cc="http://creativecommons.org/ns#"
   xmlns:dc="http://purl.org/dc/elements/1.1/">
  <metadata
     id="metadata12">
    <rdf:RDF>
      <cc:Work
         rdf:about="">
        <dc:format>image/svg+xml</dc:format>
        <dc:type
           rdf:resource="http://purl.org/dc/dcmitype/StillImage" />
      </cc:Work>
    </rdf:RDF>
  </metadata>
  <defs
     id="defs10" />
  <circle
     style="display:inline;fill:#dd0031;stroke-width:2.45874"
     r="125"
     cy="125"
     cx="125"
     data-name="Ellipse 8"
     id="Ellipse_8" />
  <path
     id="path872"
     style="display:inline;opacity:1;fill:#ffffff;stroke-width:36.2542"
     d="M 125 37.638672 C 114.71307 38.388612 109.08439 38.031757 108.27539 44.773438 C 108.15155 45.805445 107.87223 49.377589 107.63672 52.21875 A 75 75 0 0 0 85.744141 61.199219 C 83.609118 59.391815 80.90495 57.079616 80.097656 56.445312 C 74.758518 52.250273 71.030808 56.482893 63.226562 63.226562 C 56.482892 71.030811 52.250273 74.758518 56.445312 80.097656 C 57.079617 80.90495 59.391815 83.609118 61.199219 85.744141 A 75 75 0 0 0 52.21875 107.63672 C 49.377589 107.87223 45.805446 108.15155 44.773438 108.27539 C 38.031757 109.08439 38.388612 114.71307 37.638672 125 C 38.388612 135.28693 38.031757 140.91561 44.773438 141.72461 C 45.805446 141.84845 49.377589 142.12777 52.21875 142.36328 A 75 75 0 0 0 61.199219 164.25586 C 59.391815 166.39088 57.079616 169.09505 56.445312 169.90234 C 52.250276 175.24148 56.482892 178.96919 63.226562 186.77344 C 71.030811 193.51711 74.758519 197.74973 80.097656 193.55469 C 80.90495 192.92038 83.609118 190.60819 85.744141 188.80078 A 75 75 0 0 0 107.63672 197.78125 C 107.87223 200.62241 108.15155 204.19456 108.27539 205.22656 C 109.08439 211.96824 114.71307 211.61139 125 212.36133 C 135.28693 211.61139 140.91561 211.96824 141.72461 205.22656 C 141.84845 204.19456 142.12777 200.62241 142.36328 197.78125 A 75 75 0 0 0 164.25586 188.80078 C 166.39088 190.60819 169.09505 192.92038 169.90234 193.55469 C 175.24148 197.74973 178.96919 193.51708 186.77344 186.77344 C 193.51711 178.96919 197.74973 175.24148 193.55469 169.90234 C 192.92038 169.09505 190.60819 166.39088 188.80078 164.25586 A 75 75 0 0 0 197.78125 142.36328 C 200.62241 142.12777 204.19456 141.84845 205.22656 141.72461 C 211.96824 140.91561 211.61139 135.28693 212.36133 125 C 211.61139 114.71307 211.96824 109.08439 205.22656 108.27539 C 204.21756 108.15431 200.69139 107.8787 197.94727 107.65039 A 75 75 0 0 0 188.85156 85.685547 C 190.62951 83.584706 192.92705 80.896471 193.55469 80.097656 C 197.74973 74.758518 193.51708 71.030811 186.77344 63.226562 C 178.96919 56.482893 175.24148 52.250273 169.90234 56.445312 C 169.10353 57.072953 166.41529 59.370486 164.31445 61.148438 A 75 75 0 0 0 142.34961 52.052734 C 142.1213 49.308612 141.84569 45.782441 141.72461 44.773438 C 140.91561 38.031757 135.28693 38.388612 125 37.638672 z M 125 75 A 50 50 0 0 1 175 125 A 50 50 0 0 1 125 175 A 50 50 0 0 1 75 125 A 50 50 0 0 1 125 75 z " />
</svg>

<svg xmlns="http://www.w3.org/2000/svg" width="250" height="250"><circle cx="125" cy="125" r="125" data-name="Ellipse 8" style="display:inline;fill:#dd0031;stroke-width:2.45874"/><path d="M125 37.639c-10.287.75-15.916.393-16.725 7.134-.123 1.032-.403 4.605-.638 7.446a75 75 0 0 0-21.893 8.98c-2.135-1.807-4.84-4.12-5.646-4.754-5.34-4.195-9.067.038-16.871 6.782-6.744 7.804-10.977 11.532-6.782 16.87.635.808 2.947 3.512 4.754 5.647a75 75 0 0 0-8.98 21.893c-2.841.235-6.414.515-7.446.638-6.741.81-6.384 6.438-7.134 16.725.75 10.287.393 15.916 7.134 16.725 1.032.123 4.605.403 7.446.638a75 75 0 0 0 8.98 21.893c-1.807 2.135-4.12 4.839-4.754 5.646-4.195 5.34.038 9.067 6.782 16.871 7.804 6.744 11.532 10.977 16.87 6.782.808-.635 3.512-2.947 5.647-4.754a75 75 0 0 0 21.893 8.98c.235 2.841.515 6.414.638 7.446.81 6.741 6.438 6.384 16.725 7.134 10.287-.75 15.916-.393 16.725-7.134.123-1.032.403-4.605.638-7.446a75 75 0 0 0 21.893-8.98c2.135 1.807 4.839 4.12 5.646 4.754 5.34 4.195 9.067-.038 16.871-6.782 6.744-7.804 10.977-11.532 6.782-16.87-.635-.808-2.947-3.512-4.754-5.647a75 75 0 0 0 8.98-21.893c2.841-.235 6.414-.515 7.446-.638 6.741-.81 6.384-6.438 7.134-16.725-.75-10.287-.393-15.916-7.134-16.725-1.01-.12-4.536-.396-7.28-.625a75 75 0 0 0-9.095-21.964c1.778-2.101 4.075-4.79 4.703-5.588 4.195-5.34-.038-9.067-6.782-16.871-7.804-6.744-11.532-10.977-16.87-6.782-.8.628-3.488 2.925-5.589 4.703a75 75 0 0 0-21.964-9.095c-.229-2.744-.504-6.27-.625-7.28-.81-6.741-6.438-6.384-16.725-7.134zM125 75a50 50 0 0 1 50 50 50 50 0 0 1-50 50 50 50 0 0 1-50-50 50 50 0 0 1 50-50z" style="display:inline;opacity:1;fill:#fff;stroke-width:36.2542"/></svg>
